svg/Pictogram/pictograms-nps-land-technical_rock_climbing.svg

<svg xmlns="http://www.w3.org/2000/svg" width="123.55" height="123.54" viewBox="-0.258 -0.548 123.547 123.539" enable-background="new -0.258 -0.548 123.547 123.539"><path d="m108.66 123.31c8.148 0 14.742-6.617 14.742-14.773v-94.02c0-8.156-6.594-14.75-14.742-14.75h-94c-8.156 0-14.773 6.593-14.773 14.75v94.02c0 8.156 6.617 14.773 14.773 14.773h94"/><path d="m14.656 2.27c-6.766 0-12.273 5.5-12.273 12.25v94.02c0 6.766 5.508 12.266 12.273 12.266h94c6.758 0 12.258-5.5 12.258-12.266v-94.02c0-6.75-5.5-12.25-12.258-12.25h-94"/><g fill="#fff"><path d="m61.62 79.19c-1.055.391-2.227.609-3.422.609-1.289 0-2.562-.148-3.734-.492l-13.281 30.524c-1.211 2.805-4.555 3.758-7.461 2.117-2.906-1.633-4.273-5.219-3.02-8.03l16.273-37.33h20.75v-3.492l10.492-4.883c2.758-1.344 6.32.953 7.05 3.859l5.148 20.656c.734 2.93-1.047 5.883-3.977 6.617-2.93.727-5.906-1.055-6.641-3.984l-3.273-13.156-14.906 6.984"/><path d="m71.18 57.801c22.726-11.281 31.539-49.899 31.539-53.12h-3.125c-1.172 8.05-10.938 40.28-28.414 49.633v3.492"/><path d="m29.23 49.35c1.195 1.852 3.594 2.688 5.719 1.805l12.02-4.711v16.672h20.75v-19.305l18.594-29.766c1.367-2.172.734-5.05-1.461-6.445-2.172-1.367-5.05-.734-6.273 1.391l-15.79 25.297-9.523.023c-.609 0-1.219.094-1.828.344l-16.445 6.445-8.477-12.844c-1.391-2.148-4.266-2.781-6.445-1.391-2.172 1.391-2.805 4.297-1.414 6.469l10.57 16.02"/><path d="m55.93 32.605c4.562 0 8.273-3.688 8.273-8.25s-3.711-8.273-8.273-8.273c-4.57 0-8.281 3.711-8.281 8.273s3.71 8.25 8.281 8.25"/><path d="m67.72 117.03v-37.23l-3.49 1.63v35.6z"/></g></svg>

<?xml version="1.0" encoding="iso-8859-1"?>
<!-- Generator: Adobe Illustrator 13.0.2, SVG Export Plug-In . SVG Version: 6.00 Build 14948)  -->
<!DOCTYPE svg PUBLIC "-//W3C//DTD SVG 1.1//EN" "http://www.w3.org/Graphics/SVG/1.1/DTD/svg11.dtd">
<svg version="1.1" id="Layer_1" xmlns="http://www.w3.org/2000/svg" xmlns:xlink="http://www.w3.org/1999/xlink" x="0px" y="0px"
	 width="123.547px" height="123.539px" viewBox="-0.258 -0.548 123.547 123.539"
	 style="enable-background:new -0.258 -0.548 123.547 123.539;" xml:space="preserve">
<g>
	<path d="M108.656,123.309c8.148,0,14.742-6.617,14.742-14.773V14.52c0-8.156-6.594-14.75-14.742-14.75h-94
		C6.5-0.23-0.117,6.363-0.117,14.52v94.016c0,8.156,6.617,14.773,14.773,14.773H108.656z"/>
	<path d="M14.656,2.27c-6.766,0-12.273,5.5-12.273,12.25v94.016c0,6.766,5.508,12.266,12.273,12.266h94
		c6.758,0,12.258-5.5,12.258-12.266V14.52c0-6.75-5.5-12.25-12.258-12.25H14.656z"/>
	<path style="fill:#FFFFFF;" d="M61.617,79.191c-1.055,0.391-2.227,0.609-3.422,0.609c-1.289,0-2.562-0.148-3.734-0.492
		L41.18,109.832c-1.211,2.805-4.555,3.758-7.461,2.117c-2.906-1.633-4.273-5.219-3.023-8.031L46.969,66.59h20.75v-3.492
		l10.492-4.883c2.758-1.344,6.32,0.953,7.055,3.859l5.148,20.656c0.734,2.93-1.047,5.883-3.977,6.617
		c-2.93,0.727-5.906-1.055-6.641-3.984l-3.273-13.156L61.617,79.191z"/>
	<path style="fill:#FFFFFF;" d="M71.18,57.801C93.906,46.52,102.719,7.902,102.719,4.676h-3.125
		C98.422,12.73,88.656,44.957,71.18,54.309V57.801z"/>
	<path style="fill:#FFFFFF;" d="M29.227,49.355c1.195,1.852,3.594,2.688,5.719,1.805l12.023-4.711v16.672h20.75V43.816
		l18.594-29.766c1.367-2.172,0.734-5.055-1.461-6.445c-2.172-1.367-5.055-0.734-6.273,1.391L62.789,34.293l-9.523,0.023
		c-0.609,0-1.219,0.094-1.828,0.344l-16.445,6.445l-8.477-12.844c-1.391-2.148-4.266-2.781-6.445-1.391
		c-2.172,1.391-2.805,4.297-1.414,6.469L29.227,49.355z"/>
	<path style="fill:#FFFFFF;" d="M55.93,32.605c4.562,0,8.273-3.688,8.273-8.25s-3.711-8.273-8.273-8.273
		c-4.57,0-8.281,3.711-8.281,8.273S51.359,32.605,55.93,32.605z"/>
	<polygon style="fill:#FFFFFF;" points="67.719,117.027 67.719,79.801 64.227,81.434 64.227,117.027 	"/>
</g>
</svg>
